client/src/assets/dispositif/thumb-up.svg

<svg fill="none" height="24" viewBox="0 0 24 24" width="24" xmlns="http://www.w3.org/2000/svg"><path clip-rule="evenodd" d="m12.384.690951 1.814.906999c1.0518.52574 1.5951 1.71344 1.305 2.853l-.903 3.549h6.4c1.1046 0 2 .89543 2 2v2.10405c.0003.2613-.0507.5202-.15.762l-3.095 7.515c-.1544.3747-.5197.619-.925.619h-16.83c-.55228 0-1-.4478-1-1v-10.00005c0-.55228.44772-1 1-1h3.482c.32488.00008.62955-.15766.817-.423l5.453-7.726999c.1424-.201867.411-.269426.632-.159zm.259 2.366999-4.71 6.672c-.25.35405-.57.64405-.933.85805v8.412h11.16l2.84-6.896v-2.10405h-6.4c-.6173-.00009-1.1999-.28518-1.5787-.77251-.3789-.48733-.5115-1.12228-.3593-1.72049l.903-3.548c.0582-.22804-.0505-.46582-.261-.571z" fill="#000091" fill-rule="evenodd"/></svg>

<svg width="24" height="24" viewBox="0 0 24 24" fill="none" xmlns="http://www.w3.org/2000/svg">
<path fill-rule="evenodd" clip-rule="evenodd" d="M12.384 0.690951L14.198 1.59795C15.2498 2.12369 15.7931 3.31139 15.503 4.45095L14.6 7.99995H21C22.1046 7.99995 23 8.89538 23 9.99995V12.104C23.0003 12.3653 22.9493 12.6242 22.85 12.866L19.755 20.381C19.6006 20.7557 19.2353 21 18.83 21H2C1.44772 21 1 20.5522 1 20V9.99995C1 9.44767 1.44772 8.99995 2 8.99995H5.482C5.80688 9.00003 6.11155 8.84229 6.299 8.57695L11.752 0.849951C11.8944 0.648084 12.163 0.580525 12.384 0.690951ZM12.643 3.05795L7.933 9.72995C7.683 10.084 7.363 10.374 7 10.588V19H18.16L21 12.104V9.99995H14.6C13.9827 9.99986 13.4001 9.71477 13.0213 9.22744C12.6424 8.74011 12.5098 8.10516 12.662 7.50695L13.565 3.95895C13.6232 3.73091 13.5145 3.49313 13.304 3.38795L12.643 3.05795Z" fill="#000091"/>
</svg>
